src/apps/scalable/4diac-ide.svg

<?xml version="1.0" encoding="UTF-8" standalone="no"?>
<svg
   xmlns:dc="http://purl.org/dc/elements/1.1/"
   xmlns:cc="http://creativecommons.org/ns#"
   xmlns:rdf="http://www.w3.org/1999/02/22-rdf-syntax-ns#"
   xmlns:svg="http://www.w3.org/2000/svg"
   xmlns="http://www.w3.org/2000/svg"
   xmlns:xlink="http://www.w3.org/1999/xlink"
   xmlns:sodipodi="http://sodipodi.sourceforge.net/DTD/sodipodi-0.dtd"
   xmlns:inkscape="http://www.inkscape.org/namespaces/inkscape"
   width="64"
   height="64"
   viewBox="0 0 16.933333 16.933334"
   version="1.1"
   id="svg8"
   inkscape:version="1.0.2 (e86c870879, 2021-01-15)"
   sodipodi:docname="4diac-ide.svg">
  <defs
     id="defs2">
    <linearGradient
       id="linearGradient1049"
       x1="35.889"
       x2="35.889"
       y1="14.865"
       y2="31.173"
       gradientTransform="matrix(1.5625,0,0,1.5625,-8.1072,-10.908)"
       gradientUnits="userSpaceOnUse">
      <stop
         stop-color="#ff1e32"
         offset="0"
         id="stop23" />
      <stop
         stop-color="#ff5064"
         offset="1"
         id="stop25" />
    </linearGradient>
    <linearGradient
       id="linearGradient1067"
       x1="34.426998"
       x2="34.426998"
       y1="32.234001"
       y2="39.768002"
       gradientTransform="matrix(1,0,0,1.2271,5.7554,-25.761)"
       gradientUnits="userSpaceOnUse"
       xlink:href="#linearGradient1057" />
    <linearGradient
       id="linearGradient1057">
      <stop
         stop-color="#fff"
         offset="0"
         id="stop4" />
      <stop
         stop-color="#fff"
         stop-opacity="0"
         offset="1"
         id="stop6" />
    </linearGradient>
    <linearGradient
       id="linearGradient1047"
       x1="15.245"
       x2="15.245"
       y1="27.216999"
       y2="10.98"
       gradientTransform="matrix(1.5625,0,0,1.5625,-9.2253,1.3231)"
       gradientUnits="userSpaceOnUse">
      <stop
         stop-color="#14dc78"
         offset="0"
         id="stop18" />
      <stop
         stop-color="#14a03c"
         offset="1"
         id="stop20" />
    </linearGradient>
    <linearGradient
       id="linearGradient1063"
       x1="34.426998"
       x2="34.426998"
       y1="32.234001"
       y2="39.768002"
       gradientTransform="matrix(1,0,0,1.2271,-12.55,-19.793)"
       gradientUnits="userSpaceOnUse"
       xlink:href="#linearGradient1057" />
    <linearGradient
       id="linearGradient982"
       x1="16.919001"
       x2="16.919001"
       y1="37.106998"
       y2="21.003"
       gradientTransform="matrix(1.5625,0,0,1.5625,0.40633,-5.1891)"
       gradientUnits="userSpaceOnUse">
      <stop
         stop-color="#32b4ff"
         offset="0"
         id="stop9" />
      <stop
         stop-color="#0c35f9"
         offset="1"
         id="stop11" />
    </linearGradient>
    <linearGradient
       id="linearGradient1059"
       x1="34.426998"
       x2="34.426998"
       y1="32.234001"
       y2="39.768002"
       gradientTransform="matrix(1,0,0,1.2271,0.20646,-10.975)"
       gradientUnits="userSpaceOnUse"
       xlink:href="#linearGradient1057" />
  </defs>
  <sodipodi:namedview
     id="base"
     pagecolor="#ffffff"
     bordercolor="#666666"
     borderopacity="1.0"
     inkscape:pageopacity="0.0"
     inkscape:pageshadow="2"
     inkscape:zoom="3.959798"
     inkscape:cx="39.375607"
     inkscape:cy="27.781923"
     inkscape:document-units="mm"
     inkscape:current-layer="layer1"
     inkscape:document-rotation="0"
     showgrid="false"
     units="px"
     inkscape:window-width="1920"
     inkscape:window-height="992"
     inkscape:window-x="0"
     inkscape:window-y="0"
     inkscape:window-maximized="1" />
  <metadata
     id="metadata5">
    <rdf:RDF>
      <cc:Work
         rdf:about="">
        <dc:format>image/svg+xml</dc:format>
        <dc:type
           rdf:resource="http://purl.org/dc/dcmitype/StillImage" />
        <dc:title></dc:title>
      </cc:Work>
    </rdf:RDF>
  </metadata>
  <g
     inkscape:label="图层 1"
     inkscape:groupmode="layer"
     id="layer1">
    <g
       id="g1113">
      <path
         id="path887"
         style="fill:#f0f0f5;fill-opacity:1;stroke-width:0.264583;image-rendering:optimizeSpeed"
         d="m 4.6302085,1.1906251 c -1.9055427,0 -3.4395833,1.5340406 -3.4395833,3.4395833 v 7.6729166 c 0,1.905542 1.5340406,3.439583 3.4395833,3.439583 h 7.0553835 0.617533 c 1.905543,0 3.439583,-1.534041 3.439583,-3.439583 V 4.6302084 c 0,-1.9055427 -1.53404,-3.4395833 -3.439583,-3.4395833 H 6.8140544 Z" />
      <g
         transform="matrix(0.27560764,0,0,0.27560764,-0.35277781,-0.15985247)"
         stroke-width="1.4"
         id="g18">
        <path
           d="m 15.2,14.5 v 7 h 4.2 v 4.2 h -4.2 v 2.8 h 15.34 l 8.2359,-14 z m 0,15.4 v 2.8 h 12.871 l 1.6461,-2.8 z m 0,4.2 v 2.8 h 10.399 l 1.6488,-2.8 z m 0,4.2 v 9.8 H 39 V 45.3 H 25 v -7 z"
           fill="#012369"
           style="paint-order:normal"
           id="path14" />
        <path
           d="m 40.4,14.5 -14,23.8 v 5.6 h 14 v 4.2 H 46 v -4.2 h 2.8 V 38.3 H 46 V 14.5 Z m 0,9.1 V 38.3 H 32 Z"
           fill="#ff960f"
           style="paint-order:normal"
           id="path16" />
      </g>
    </g>
  </g>
</svg>

<?xml version="1.0" encoding="UTF-8"?>
<svg id="svg8" width="64" height="64" version="1.1" viewBox="0 0 16.933 16.933" xmlns="http://www.w3.org/2000/svg" xmlns:cc="http://creativecommons.org/ns#" xmlns:dc="http://purl.org/dc/elements/1.1/" xmlns:rdf="http://www.w3.org/1999/02/22-rdf-syntax-ns#" xmlns:xlink="http://www.w3.org/1999/xlink">
 <metadata id="metadata5">
  <rdf:RDF>
   <cc:Work rdf:about="">
    <dc:format>image/svg+xml</dc:format>
    <dc:type rdf:resource="http://purl.org/dc/dcmitype/StillImage"/>
    <dc:title/>
   </cc:Work>
  </rdf:RDF>
 </metadata>
 <g id="layer1">
  <g id="g1113">
   <path id="path887" d="m4.6302 1.1906c-1.9055 0-3.4396 1.534-3.4396 3.4396v7.6729c0 1.9055 1.534 3.4396 3.4396 3.4396h7.6729c1.9055 0 3.4396-1.534 3.4396-3.4396v-7.6729c0-1.9055-1.534-3.4396-3.4396-3.4396h-5.4891z" fill="#f0f0f5" image-rendering="optimizeSpeed" stroke-width=".26458"/>
   <g id="g18" transform="matrix(.27561 0 0 .27561 -.35278 -.15985)" stroke-width="1.4">
    <path id="path14" d="m15.2 14.5v7h4.2v4.2h-4.2v2.8h15.34l8.2359-14zm0 15.4v2.8h12.871l1.6461-2.8zm0 4.2v2.8h10.399l1.6488-2.8zm0 4.2v9.8h23.8v-2.8h-14v-7z" fill="#012369" style="paint-order:normal"/>
    <path id="path16" d="m40.4 14.5-14 23.8v5.6h14v4.2h5.6v-4.2h2.8v-5.6h-2.8v-23.8zm0 9.1v14.7h-8.4z" fill="#ff960f" style="paint-order:normal"/>
   </g>
  </g>
 </g>
</svg>
